X:7664
T:Trip to California
O:england
C:Trad
R:Reel
M:4/4
K:A
L:1/8
AcBc AFEF | Acea f2 (3efg | agae fecA | BcBA F2 EF |
AcBc AFEF | Acea f2 (3efg | agae fecA | BAFG A4 :|
|: agfa gfeg | fefg fece | afec A2 Ac | BcBA F2 EF |
AcBc AFEF | Acea f2 (3efg | agae fecA | BAFG A4 :|


